X:5426
T:Rakes of Mallow
O:england
C:Traditional
M:4/4
L:1/8
K:G
D2|G2B2G2B2|G2B2cBAG|F2A2F2A2|
F2A2dcBA|G2B2G2B2|G2B2d3d|cBAG FGAc|
B2G2G2:|
|:d2|g2fe d2c2|B2c2d3d|g2fe d2c2|
B2d2A4|g2fe d2c2|B2c2d3d|cBAG FGAc|
B2G2G2:|


